src/icons/abc.svg

<svg
  width="24"
  height="24"
  viewBox="0 0 24 24"
  fill="none"
  xmlns="http://www.w3.org/2000/svg"
>
  <path
    d="M13.295 11.033V7.65L15.421 5.514C16.195 4.751 16.34 3.533 15.798 2.585C15.5916 2.2175 15.2915 1.91127 14.9282 1.69749C14.5649 1.48371 14.1515 1.37002 13.73 1.368C13.527 1.368 13.295 1.397 13.111 1.455C12.067 1.735 11.362 2.701 11.362 3.785V6.915L8.327 9.98C7.53938 10.7837 7.00505 11.801 6.79031 12.9057C6.57556 14.0103 6.68985 15.1537 7.119 16.194C7.4767 17.0792 8.05391 17.8588 8.79624 18.4592C9.53857 19.0597 10.4216 19.4612 11.362 19.626V20.216C11.358 20.3427 11.3058 20.4632 11.216 20.5527C11.1263 20.6423 11.0057 20.6942 10.879 20.698H9.429V22.632H10.879C11.5188 22.6283 12.1313 22.3725 12.5837 21.92C13.036 21.4674 13.2916 20.8548 13.295 20.215V19.732C15.257 19.732 17.315 17.876 17.315 15.141C17.315 12.918 15.46 11.033 13.295 11.033ZM13.295 3.784C13.295 3.562 13.401 3.388 13.605 3.33C13.7069 3.3007 13.8156 3.30668 13.9137 3.34698C14.0117 3.38728 14.0932 3.45953 14.145 3.552C14.2 3.64478 14.2224 3.75333 14.2084 3.8603C14.1944 3.96727 14.145 4.06646 14.068 4.142L13.295 4.972V3.785M11.362 11.517C10.424 12.136 9.719 13.199 9.468 14.185L11.362 14.688V17.636C10.8078 17.4874 10.2953 17.2129 9.86451 16.834C9.43368 16.455 9.09609 15.9817 8.878 15.451C8.59709 14.7642 8.52334 14.0102 8.66586 13.282C8.80837 12.5538 9.16091 11.8832 9.68 11.353L11.362 9.584V11.517ZM13.295 17.8V12.91C14.425 12.91 15.402 13.972 15.402 15.142C15.402 16.833 14.175 17.8 13.295 17.8Z"
    fill="#FF5722"
  />
</svg>

<svg xmlns="http://www.w3.org/2000/svg" viewBox="0 0 24 24">
  <path
    d="M13.295 11.033V7.65l2.126-2.136c.774-.763.919-1.981.377-2.929a2.385 2.385 0 0 0-2.068-1.217c-.203 0-.435.029-.619.087-1.044.28-1.749 1.246-1.749 2.33v3.13L8.327 9.98a5.747 5.747 0 0 0-1.208 6.214 5.623 5.623 0 0 0 4.243 3.432v.59a.498.498 0 0 1-.483.482h-1.45v1.934h1.45a2.43 2.43 0 0 0 2.416-2.417v-.483c1.962 0 4.02-1.856 4.02-4.591 0-2.223-1.855-4.108-4.02-4.108m0-7.249c0-.222.106-.396.31-.454a.47.47 0 0 1 .54.222.482.482 0 0 1-.077.59l-.773.83V3.785m-1.933 7.732c-.938.619-1.643 1.682-1.894 2.668l1.894.503v2.948a3.73 3.73 0 0 1-2.484-2.185 3.801 3.801 0 0 1 .802-4.098l1.682-1.769v1.933m1.933 6.283v-4.89c1.13 0 2.107 1.062 2.107 2.232 0 1.691-1.227 2.658-2.107 2.658z"
    fill="#ff5722"
  />
</svg>
